X:505
T: "Liebesplauderei"
N: Z1185
O: Europa, Mitteleuropa, Deutschland, Niederrhein
R: Liebes - Lied, Abschieds - Lied
M: 6/8
L: 1/16
K: G
D2 | G2G2A2B2G2A2 | B6A4
Bc | d2c2B2A2G2A2 | B4z6
B2 | d2c2B2A2G2A2 | G4E2D4
D2 | B4G2A4
Bc | d3cB2A2G2A2 | G8z2

